public/nurselist_logo_black.svg

<?xml version="1.0" encoding="UTF-8"?>
<!DOCTYPE svg PUBLIC "-//W3C//DTD SVG 1.1//EN" "http://www.w3.org/Graphics/SVG/1.1/DTD/svg11.dtd">
<svg xmlns="http://www.w3.org/2000/svg" version="1.1" width="950px" height="880px" style="shape-rendering:geometricPrecision; text-rendering:geometricPrecision; image-rendering:optimizeQuality; fill-rule:evenodd; clip-rule:evenodd" xmlns:xlink="http://www.w3.org/1999/xlink">
<g><path style="opacity:1" fill="#fefefe" d="M -0.5,-0.5 C 316.167,-0.5 632.833,-0.5 949.5,-0.5C 949.5,292.833 949.5,586.167 949.5,879.5C 632.833,879.5 316.167,879.5 -0.5,879.5C -0.5,586.167 -0.5,292.833 -0.5,-0.5 Z"/></g>
<g><path style="opacity:1" fill="#808080" d="M 469.5,144.5 C 471.693,143.203 474.027,143.203 476.5,144.5C 476.376,145.107 476.043,145.44 475.5,145.5C 473.735,144.539 471.735,144.205 469.5,144.5 Z"/></g>
<g><path style="opacity:1" fill="#040404" d="M 469.5,144.5 C 471.735,144.205 473.735,144.539 475.5,145.5C 442.894,188.402 418.061,235.735 401,287.5C 400.632,288.91 399.799,289.91 398.5,290.5C 389.882,284.216 381.882,277.216 374.5,269.5C 389.933,225.964 410.6,185.297 436.5,147.5C 447.336,144.888 458.336,143.888 469.5,144.5 Z"/></g>
<g><path style="opacity:1" fill="#040404" d="M 541.5,151.5 C 552.762,154.231 563.762,157.731 574.5,162C 523.233,216.349 489.067,280.182 472,353.5C 463.37,346.539 455.037,339.205 447,331.5C 460.054,278.328 482.721,229.662 515,185.5C 524.092,174.287 532.926,162.954 541.5,151.5 Z"/></g>
<g><path style="opacity:1" fill="#060606" d="M 367.5,164.5 C 368.043,164.56 368.376,164.893 368.5,165.5C 355.76,188.318 344.593,211.985 335,236.5C 327,229.833 319,223.167 311,216.5C 314.075,205.517 318.908,195.35 325.5,186C 339.155,178.007 353.155,170.84 367.5,164.5 Z"/></g>
<g><path style="opacity:1" fill="#040404" d="M 625.5,186.5 C 635.125,191.316 644.125,197.149 652.5,204C 590.227,261.383 555.227,332.55 547.5,417.5C 538.814,409.647 529.981,401.98 521,394.5C 526.872,342.886 543.872,295.22 572,251.5C 587.401,227.922 605.235,206.256 625.5,186.5 Z"/></g>
<g><path style="opacity:1" fill="#040404" d="M 264.5,235.5 C 266.595,236.412 268.595,237.579 270.5,239C 385.869,338.093 501.702,436.593 618,534.5C 587.662,448.541 596.995,367.208 646,290.5C 659.039,272.457 673.872,255.957 690.5,241C 691.167,240.333 691.833,240.333 692.5,241C 698.86,248.226 704.86,255.726 710.5,263.5C 645.071,324.288 620.237,398.955 636,487.5C 646.886,535.69 670.386,576.523 706.5,610C 701,616.833 695.5,623.667 690,630.5C 688.867,632.211 687.367,632.711 685.5,632C 566.333,530.833 447.167,429.667 328,328.5C 352.118,394.765 351.118,460.765 325,526.5C 309.099,563.062 286.265,594.562 256.5,621C 255.833,621.667 255.167,621.667 254.5,621C 248.617,614.118 243.117,606.952 238,599.5C 237.333,598.5 237.333,597.5 238,596.5C 296.896,540.96 321.896,472.626 313,391.5C 305.305,339.44 282.805,295.107 245.5,258.5C 251.479,250.523 257.812,242.856 264.5,235.5 Z"/></g>
<g><path style="opacity:1" fill="#030303" d="M 217.5,302.5 C 256.234,346.235 271.067,397.235 262,455.5C 255.248,493.016 238.414,525.016 211.5,551.5C 206.428,541.791 202.428,531.624 199.5,521C 236.638,472.024 243.805,418.857 221,361.5C 215.99,351.471 210.49,341.804 204.5,332.5C 208.295,322.246 212.628,312.246 217.5,302.5 Z"/></g>
<g><path style="opacity:1" fill="#040404" d="M 736.5,308.5 C 742.141,317.459 746.474,327.126 749.5,337.5C 749.281,338.938 748.781,340.271 748,341.5C 712.98,384.266 703.314,432.266 719,485.5C 725.13,504.581 734.63,521.747 747.5,537C 743.585,547.069 739.085,556.903 734,566.5C 691.245,521.558 674.579,468.225 684,406.5C 691.327,368.168 708.827,335.502 736.5,308.5 Z"/></g>
<g><path style="opacity:1" fill="#040404" d="M 397.5,445.5 C 406.794,452.955 415.96,460.622 425,468.5C 414.356,551.126 378.856,620.793 318.5,677.5C 309.463,672.297 301.129,666.131 293.5,659C 356.05,601.727 390.717,530.56 397.5,445.5 Z"/></g>
<g><path style="opacity:1" fill="#040404" d="M 473.5,509.5 C 482.172,517.173 490.839,524.84 499.5,532.5C 481.119,601.622 447.952,662.288 400,714.5C 389.981,711.66 380.148,708.327 370.5,704.5C 369.479,703.998 369.312,703.332 370,702.5C 422.268,647.98 456.768,583.647 473.5,509.5 Z"/></g>
<g><path style="opacity:1" fill="#040404" d="M 492.5,723.5 C 483.983,723.826 475.65,723.493 467.5,722.5C 492.898,688.863 514.065,652.53 531,613.5C 536.736,599.623 542.069,585.623 547,571.5C 554.845,579.01 563.012,586.177 571.5,593C 555.412,639.012 533.412,681.845 505.5,721.5C 501.384,723.281 497.051,723.947 492.5,723.5 Z"/></g>
<g><path style="opacity:1" fill="#050505" d="M 610.5,626.5 C 619.107,633.101 627.44,640.101 635.5,647.5C 629.832,661.351 623.499,674.851 616.5,688C 602.673,695.58 588.339,702.08 573.5,707.5C 573.167,707.167 572.833,706.833 572.5,706.5C 587.296,680.905 599.963,654.238 610.5,626.5 Z"/></g>
<g><path style="opacity:1" fill="#484848" d="M 467.5,722.5 C 475.65,723.493 483.983,723.826 492.5,723.5C 483.991,724.821 475.325,724.821 466.5,723.5C 466.624,722.893 466.957,722.56 467.5,722.5 Z"/></g>
</svg>

<svg version="1.2" xmlns="http://www.w3.org/2000/svg" viewBox="0 0 950 880" width="950" height="880">
	<title>nurselist_logo_black-svg</title>
	<style>
		.s0 { fill: #808080 } 
		.s1 { fill: #040404 } 
		.s2 { fill: #060606 } 
		.s3 { fill: #030303 } 
		.s4 { fill: #050505 } 
		.s5 { fill: #484848 } 
	</style>
	<g id="Layer">
	</g>
	<g id="Layer">
		<path id="Layer" fill-rule="evenodd" class="s0" d="m469.5 144.5q3.3-1.9 7 0-0.2 0.9-1 1-2.6-1.4-6-1z"/>
	</g>
	<g id="Layer">
		<path id="Layer" fill-rule="evenodd" class="s1" d="m469.5 144.5q3.4-0.4 6 1-48.9 64.4-74.5 142-0.6 2.1-2.5 3-12.9-9.4-24-21 23.1-65.3 62-122 16.3-3.9 33-3z"/>
	</g>
	<g id="Layer">
		<path id="Layer" fill-rule="evenodd" class="s1" d="m541.5 151.5q16.9 4.1 33 10.5-76.9 81.5-102.5 191.5-12.9-10.4-25-22 19.6-79.8 68-146 13.6-16.8 26.5-34z"/>
	</g>
	<g id="Layer">
		<path id="Layer" fill-rule="evenodd" class="s2" d="m367.5 164.5q0.8 0.1 1 1-19.1 34.2-33.5 71-12-10-24-20 4.6-16.5 14.5-30.5 20.5-12 42-21.5z"/>
	</g>
	<g id="Layer">
		<path id="Layer" fill-rule="evenodd" class="s1" d="m625.5 186.5q14.4 7.2 27 17.5-93.4 86.1-105 213.5-13-11.8-26.5-23 8.8-77.4 51-143 23.1-35.4 53.5-65z"/>
	</g>
	<g id="Layer">
		<path id="Layer" fill-rule="evenodd" class="s1" d="m264.5 235.5q3.1 1.4 6 3.5 173.1 148.6 347.5 295.5-45.5-128.9 28-244 19.6-27.1 44.5-49.5 1-1 2 0 9.5 10.8 18 22.5-98.1 91.2-74.5 224 16.3 72.3 70.5 122.5-8.3 10.3-16.5 20.5-1.7 2.6-4.5 1.5-178.8-151.8-357.5-303.5 36.2 99.4-3 198-23.9 54.8-68.5 94.5-1 1-2 0-8.8-10.3-16.5-21.5-1-1.5 0-3 88.3-83.3 75-205-11.5-78.1-67.5-133 9-12 19-23z"/>
	</g>
	<g id="Layer">
		<path id="Layer" fill-rule="evenodd" class="s3" d="m217.5 302.5q58.1 65.6 44.5 153-10.1 56.3-50.5 96-7.6-14.6-12-30.5 55.7-73.5 21.5-159.5-7.5-15-16.5-29 5.7-15.4 13-30z"/>
	</g>
	<g id="Layer">
		<path id="Layer" fill-rule="evenodd" class="s1" d="m736.5 308.5q8.5 13.4 13 29-0.3 2.2-1.5 4-52.5 64.1-29 144 9.2 28.6 28.5 51.5-5.9 15.1-13.5 29.5-64.1-67.4-50-160 11-57.5 52.5-98z"/>
	</g>
	<g id="Layer">
		<path id="Layer" fill-rule="evenodd" class="s1" d="m397.5 445.5q13.9 11.2 27.5 23-16 123.9-106.5 209-13.6-7.8-25-18.5 93.8-85.9 104-213.5z"/>
	</g>
	<g id="Layer">
		<path id="Layer" fill-rule="evenodd" class="s1" d="m473.5 509.5q13 11.5 26 23-27.6 103.7-99.5 182-15-4.3-29.5-10-1.5-0.8-0.5-2 78.4-81.8 103.5-193z"/>
	</g>
	<g id="Layer">
		<path id="Layer" fill-rule="evenodd" class="s1" d="m492.5 723.5q-12.8 0.5-25-1 38.1-50.5 63.5-109 8.6-20.8 16-42 11.8 11.3 24.5 21.5-24.1 69-66 128.5-6.2 2.7-13 2z"/>
	</g>
	<g id="Layer">
		<path id="Layer" fill-rule="evenodd" class="s4" d="m610.5 626.5q12.9 9.9 25 21-8.5 20.8-19 40.5-20.7 11.4-43 19.5-0.5-0.5-1-1 22.2-38.4 38-80z"/>
	</g>
	<g id="Layer">
		<path id="Layer" fill-rule="evenodd" class="s5" d="m467.5 722.5q12.2 1.5 25 1-12.8 2-26 0 0.2-0.9 1-1z"/>
	</g>
</svg>
